X:28
T:Bill Sullivan's Polka
C:trad.
S:Kevin Burke ``If the Cap fits" and Clif Cole
M:2/4l
I:speed 450
K:G
|:g4 | g3e | d2B2 | g3e |
d2B2 | g3e | d2B2 | A2G2 |
g4 | g3e | d2B2 | g4 |
B2d2 | A3B | A2G2 |[1 G4 :| [2 G3A |
|:B2d2 | d3B | c2e2 | e3c |
B2d2 | d2GA | B2A2 | A2GA |
B2d2 | d3B | c2e2 | e4 |
B2d2 | A3B | A2G2 | G4 :|
